X:1
T:Cock of the Roost
M:6/8
L:1/8
Q:80
C:Arranged by T. Tully
S:Jig
K:HP
f|
{g}Ad{c}d{g}ded|
{g}cAB{g}"flatc"c2B|
{g}Ad{c}d{gde}dcd|  !
{g}ea{g}aged{g}Ad{c}d{g}ded|
{g}cAB{g}"flatc"c2a|
ged{g}cde|  !
{g}fd{c}d{gde}d2:|
e|
f{GdG}f{g}fed|
e{g}e{A}e{g}edc|  !
d{g}d{c}d{gde}dcd|
{g}ea{g}agedf{GdG}f{g}fed|
e{g}e{A}e{gef}e2a|  !
ged{g}cde|
{g}fd{c}d{gde}d2:|

